src/main/resources/icons/AllIcons/vcs/shelveSilent.svg

<!-- Copyright 2000-2021 JetBrains s.r.o. Use of this source code is governed by the Apache 2.0 license that can be found in the LICENSE file. -->
<svg xmlns="http://www.w3.org/2000/svg" width="16" height="16" viewBox="0 0 16 16">
  <g fill="none" fill-rule="evenodd">
    <path fill="#6E6E6E" d="M3,10 L3,13 L13,13 L13,10 L15,10 L15,15 L1,15 L1,10 L3,10 Z"/>
    <path fill="#389FD6" d="M8.99999994,6.80000019 L12.1999996,6.80000019 L7.99999976,11 L3.79999995,6.80000019 L6.99999994,6.80000019 L6.99999994,2 L8.99999994,2 L8.99999994,6.80000019 Z"/>
  </g>
</svg>

<svg xmlns="http://www.w3.org/2000/svg" width="16" height="16" viewBox="0 0 16 16"><rect id="frame" width="16" height="16" fill="none"/><g fill="none" fill-rule="evenodd"><path fill="#6E6E6E" d="M3 10v3h10v-3h2v5H1v-5h2z"/><path fill="#389FD6" d="M9 6.8h3.2L8 11 3.8 6.8H7V2h2v4.8z"/></g></svg>
